img/svg/icon_spoller.svg

<svg width="35" height="35" fill="none" xmlns="http://www.w3.org/2000/svg"><path fill-rule="evenodd" clip-rule="evenodd" d="M19 0h-3v16H0v3h16v16h3V19h16v-3H19V0z" fill="#D8D8D8"/></svg>

<svg width="35" height="35" viewBox="0 0 35 35" fill="none" xmlns="http://www.w3.org/2000/svg">
<path fill-rule="evenodd" clip-rule="evenodd" d="M19 0H16V16H0V19H16V35H19V19H35V16H19V0Z" fill="#D8D8D8"/>
</svg>
